apps/dialog/public/ui/token-icons/wbtc.svg

<svg width="24" height="24" viewBox="0 0 24 24" fill="none" xmlns="http://www.w3.org/2000/svg">
<circle cx="12" cy="12" r="12" fill="#F4F4F4"/>
<path d="M19.5695 5.0368L18.9105 5.69578C20.4829 7.41534 21.3549 9.6611 21.3549 11.9912C21.3549 14.3213 20.4829 16.5671 18.9105 18.2867L19.5695 18.9456C21.3182 17.0488 22.289 14.5634 22.289 11.9835C22.289 9.40364 21.3182 6.91822 19.5695 5.02142V5.0368Z" fill="#5A5564"/>
<path d="M5.71114 5.09392C7.43071 3.52149 9.67647 2.64949 12.0066 2.64949C14.3367 2.64949 16.5825 3.52149 18.302 5.09392L18.961 4.43494C17.0642 2.68623 14.5788 1.71536 11.9989 1.71536C9.419 1.71536 6.93359 2.68623 5.03679 4.43494L5.71114 5.09392Z" fill="#5A5564"/>
<path d="M5.0939 18.2933C3.52333 16.5741 2.65249 14.3297 2.65249 12.0011C2.65249 9.67254 3.52333 7.42815 5.0939 5.70897L4.43492 5.04999C2.68621 6.94679 1.71535 9.4322 1.71535 12.0121C1.71535 14.592 2.68621 17.0774 4.43492 18.9742L5.0939 18.2933Z" fill="#5A5564"/>
<path d="M18.2932 18.9017C16.5737 20.4741 14.3279 21.3461 11.9978 21.3461C9.66768 21.3461 7.42192 20.4741 5.70236 18.9017L5.04338 19.5607C6.94018 21.3094 9.4256 22.2803 12.0055 22.2803C14.5854 22.2803 17.0708 21.3094 18.9676 19.5607L18.2932 18.9017Z" fill="#5A5564"/>
<path d="M16.1603 9.59034C16.0286 8.21527 14.8424 7.75399 13.3421 7.6134V5.71994H12.1823V7.57826C11.877 7.57826 11.5651 7.57826 11.2554 7.57826V5.71994H10.1043V7.62658H7.75179V8.86766C7.75179 8.86766 8.60846 8.85228 8.59528 8.86766C8.74974 8.85067 8.90477 8.8943 9.0277 8.98936C9.15063 9.08443 9.23185 9.2235 9.25426 9.37727V14.5964C9.25096 14.6506 9.23681 14.7036 9.21267 14.7523C9.18852 14.801 9.15486 14.8443 9.11367 14.8797C9.07326 14.9159 9.02597 14.9434 8.97463 14.9608C8.92329 14.9781 8.86897 14.985 8.81494 14.9808C8.83031 14.994 7.97144 14.9808 7.97144 14.9808L7.75179 16.3668H10.0824V18.3042H11.2422V16.3954H12.1691V18.2954H13.3311V16.38C15.2905 16.2614 16.6568 15.7781 16.8281 13.944C16.9665 12.4679 16.2724 11.8089 15.1631 11.5431C15.8375 11.2114 16.2548 10.5964 16.1603 9.59034ZM14.5349 13.7155C14.5349 15.1565 12.0659 14.9918 11.2795 14.9918V12.4349C12.0659 12.4371 14.5349 12.2109 14.5349 13.7155ZM13.9967 10.1131C13.9967 11.4311 11.9363 11.2707 11.2817 11.2707V8.94674C11.9363 8.94674 13.9967 8.74026 13.9967 10.1131Z" fill="#F09242"/>
<path d="M11.9978 24C9.62462 23.9996 7.30484 23.2955 5.33179 21.9767C3.35874 20.658 1.82101 18.7838 0.913031 16.5912C0.00505138 14.3986 -0.232403 11.9859 0.230689 9.65838C0.693782 7.33081 1.83663 5.19282 3.51472 3.51472C5.19282 1.83663 7.33081 0.693782 9.65838 0.230689C11.9859 -0.232403 14.3986 0.00505138 16.5912 0.913031C18.7838 1.82101 20.658 3.35874 21.9767 5.33179C23.2955 7.30484 23.9996 9.62462 24 11.9978C24.0003 13.574 23.69 15.1349 23.087 16.5912C22.4839 18.0475 21.5998 19.3707 20.4853 20.4853C19.3707 21.5998 18.0475 22.4839 16.5912 23.087C15.1349 23.69 13.574 24.0003 11.9978 24ZM11.9978 0.935755C9.81137 0.937492 7.67452 1.58738 5.85735 2.80327C4.04018 4.01916 2.62426 5.74648 1.78855 7.7669C0.952839 9.78732 0.734857 12.0101 1.16216 14.1544C1.58945 16.2987 2.64285 18.2682 4.1892 19.8139C5.73555 21.3596 7.70544 22.4123 9.84989 22.8387C11.9943 23.2652 14.2171 23.0463 16.2372 22.2098C18.2572 21.3733 19.984 19.9567 21.1992 18.139C22.4143 16.3213 23.0634 14.1842 23.0643 11.9978C23.0648 10.5446 22.7789 9.1055 22.223 7.76284C21.667 6.42019 20.8518 5.20029 19.824 4.17291C18.7962 3.14553 17.576 2.33082 16.2331 1.77537C14.8902 1.21991 13.451 0.9346 11.9978 0.935755Z" fill="#282138"/>
</svg>

<svg xmlns="http://www.w3.org/2000/svg" width="24" height="24" fill="none" viewBox="0 0 24 24"><circle cx="12" cy="12" r="12" fill="#f4f4f4"/><path fill="#5a5564" d="m19.57 5.037-.66.659a9.33 9.33 0 0 1 0 12.59l.66.66a10.27 10.27 0 0 0 0-13.925zM5.711 5.094a9.33 9.33 0 0 1 12.591 0l.659-.66a10.27 10.27 0 0 0-13.924 0zM5.094 18.293a9.33 9.33 0 0 1 0-12.584l-.66-.659a10.27 10.27 0 0 0 0 13.924zM18.293 18.902a9.33 9.33 0 0 1-12.59 0l-.66.659a10.27 10.27 0 0 0 13.925 0z"/><path fill="#f09242" d="M16.16 9.59c-.131-1.375-1.318-1.836-2.818-1.977V5.72h-1.16v1.858h-.927V5.72h-1.15v1.907H7.751v1.24s.856-.015.843 0a.6.6 0 0 1 .66.51v5.22a.4.4 0 0 1-.141.283.4.4 0 0 1-.3.1c.016.014-.843 0-.843 0l-.22 1.387h2.331v1.937h1.16v-1.909h.927v1.9h1.162V16.38c1.96-.119 3.326-.602 3.497-2.436.139-1.476-.556-2.135-1.665-2.4.675-.333 1.092-.948.997-1.954m-1.625 4.126c0 1.44-2.47 1.276-3.255 1.276v-2.557c.786.002 3.255-.224 3.255 1.28m-.538-3.603c0 1.318-2.06 1.158-2.715 1.158V8.947c.654 0 2.715-.207 2.715 1.166"/><path fill="#282138" d="M11.998 24A12 12 0 1 1 12.002.001 12 12 0 0 1 11.998 24m0-23.064a11.058 11.058 0 1 0 .017 22.115A11.058 11.058 0 0 0 11.998.936"/></svg>
